src/img/arrows-angle-contract.svg

<svg xmlns="http://www.w3.org/2000/svg" width="16" height="16" fill="currentColor" class="bi bi-arrows-angle-contract" viewBox="0 0 16 16">
  <path fill-rule="evenodd" d="M.172 15.828a.5.5 0 0 0 .707 0l4.096-4.096V14.5a.5.5 0 1 0 1 0v-3.975a.5.5 0 0 0-.5-.5H1.5a.5.5 0 0 0 0 1h2.768L.172 15.121a.5.5 0 0 0 0 .707zM15.828.172a.5.5 0 0 0-.707 0l-4.096 4.096V1.5a.5.5 0 1 0-1 0v3.975a.5.5 0 0 0 .5.5H14.5a.5.5 0 0 0 0-1h-2.768L15.828.879a.5.5 0 0 0 0-.707z"/>
</svg>

<?xml version="1.0" encoding="utf-8"?>
<!-- Generator: Adobe Illustrator 22.0.0, SVG Export Plug-In . SVG Version: 6.00 Build 0)  -->
<svg version="1.1" id="Слой_1" xmlns="http://www.w3.org/2000/svg" xmlns:xlink="http://www.w3.org/1999/xlink" x="0px" y="0px"
	 viewBox="0 0 16 16" style="enable-background:new 0 0 16 16;" xml:space="preserve">
<style type="text/css">
	.st0{fill:#FFFFFF;}
</style>
<path class="st0" d="M0.2,15.8c0.2,0.2,0.5,0.2,0.7,0L5,11.7v2.8C5,14.8,5.2,15,5.5,15S6,14.8,6,14.5v-4C6,10.2,5.8,10,5.5,10h-4
	C1.2,10,1,10.2,1,10.5S1.2,11,1.5,11h2.8l-4.1,4.1C0,15.3,0,15.6,0.2,15.8z M15.8,0.2c-0.2-0.2-0.5-0.2-0.7,0L11,4.3V1.5
	C11,1.2,10.8,1,10.5,1S10,1.2,10,1.5v4C10,5.8,10.2,6,10.5,6h4C14.8,6,15,5.8,15,5.5S14.8,5,14.5,5h-2.8l4.1-4.1
	C16,0.7,16,0.4,15.8,0.2z"/>
</svg>
